X:39
T:Jackie Small's Jig
R:jig
D:De Dannan.
Z:id:hn-jig-39
M:6/8
K:Edor
~E3 cEE|BEE AFD|~E3 cdc|BAF AFD|~E3 cEE|BEE ABc|def edB|1 BAF AFD:|2 BAF ABd||
|:fdf ece|edB ABd|fdf ece|edB B2d|fdf ece|edB ABc|def edB|1 BAF ABd:|2 BAF AFD||
